X: 802
T: pulla calleluya
C: rgis reynaud
M: 4/4
L: 1/8
R: schottische
K: Em
EF|:GE FG F2 EF|GE FG F2 E2|DE F/E/D A2 B2|AE FG F2 EF|
|GE FG F2 EF|GE FG F2 E2|B,/^C/^D EF GA BA|1 GF E^D E2 EF:|2 GF E^D EF GA||
|:BEE BEE B2|cB AG c4|DE F/E/D A2 B2|AE FG F2 E2|
|BEE BEE AB|ec BA c4|cB AG AG FE|1 ^DE F/E/D EF GA:|2 ^DE F/E/D E2 EF|
